public/fonts/icons/outdent2.svg

<?xml version="1.0" encoding="utf-8"?>

<!DOCTYPE svg PUBLIC "-//W3C//DTD SVG 1.1//EN" "http://www.w3.org/Graphics/SVG/1.1/DTD/svg11.dtd">
<svg version="1.1" xmlns="http://www.w3.org/2000/svg" xmlns:xlink="http://www.w3.org/1999/xlink" width="32" height="32" viewBox="0 0 32 32">
<g>
</g>
	<path d="M14 18v-4h18v4h-18zM20 6h12v4h-12v-4zM20 26v-4h12v4h-12zM12 24l-12-8 12-8v16z" fill="#000000"></path>
</svg>

<svg xmlns="http://www.w3.org/2000/svg" width="32" height="32" viewBox="0 0 32 32"><title>Outdent</title><path d="M14 18v-4h18v4H14zm6-12h12v4H20V6zm0 20v-4h12v4H20zm-8-2L0 16l12-8v16z"/></svg>
